X:9876
T:Lord Middleton's Hornpipe. FK.22
T:Durham Rangers,aka. FK.22
T:Merry Sherwood Rangers,aka. FK.22
M:C
L:1/8
Q:160
C:"MS 42"
S:Kidson's H'pipe MS,early 20thC.
R:Hornpipe
O:England
A:Leeds
N:
Z:vmp.John Bagnall
K:D
FG | ABAF D2 de | fgfe d2 Bc | dedB ABAF | B2 E2 E2 FG |!
 ABAF D2 de | fgef d2 Bc | dedB ABAG | F2 D2 D2 ||!
de | fefg afdf | fefg afdf | g2 ag f2 af | g2 e2 e2 de |!
 fefg afef | fgef d2 Bc | dedB ABAG | F2 D2 D2 ||


